X: 6
T: Eileen Curran
R: reel
M: 4/4
L: 1/8
K: Emin
GFED E3G|FDAD BDAD|GFED E3F|GFGA Beef|
(3gfe fd edBc|dBAG FDDF|GFED E3F|1 GBAF GEEF:|2 GBAF GEE2||
|:e3d egfe|d3c defd|Beed e3f|(3gfe fd Beef|
(3gfe fd edBc|dBAG FDDF|GFED E3F|1 GBAF GEE2:|2 GBAF GEEF||


Tune 132	Setting 12746

